;FLAVOR:Marlin
;TIME:1343
;Filament used: 1.47541m
;Layer height: 0.15
;MINX:112.2
;MINY:112.2
;MINZ:0.3
;MAXX:147.8
;MAXY:147.8
;MAXZ:19.95
;Generated with Cura_SteamEngine 4.4.1
M104 S195
M105
M109 S195
M82 ;absolute extrusion mode
G28 ;Home
G1 Z15.0 F6000 ;Move the platform down 15mm
;Prime the extruder
G92 E0
G1 F200 E3
G92 E0
G92 E0
G92 E0
G1 F1500 E-6.5
;LAYER_COUNT:132
;LAYER:0
M107
G0 F3600 X114.623 Y114.349 Z0.3
;TYPE:SKIRT
G1 F1500 E0
G1 F1800 X115.222 Y113.834 E0.03941
G1 X115.87 Y113.383 E0.0788
G1 X116.561 Y112.999 E0.11824
G1 X117.286 Y112.687 E0.15762
G1 X118.039 Y112.45 E0.197
G1 X118.813 Y112.291 E0.23642
G1 X119.598 Y112.21 E0.27579
G1 X120 Y112.2 E0.29586
G1 X140 Y112.2 E1.29366
G1 X140.789 Y112.24 E1.33307
G1 X141.569 Y112.359 E1.37244
G1 X142.334 Y112.557 E1.41186
G1 X143.074 Y112.831 E1.45123
G1 X143.783 Y113.179 E1.49063
G1 X144.454 Y113.597 E1.53007
G1 X145.078 Y114.08 E1.56944
G1 X145.651 Y114.623 E1.60883
G1 X146.166 Y115.222 E1.64824
G1 X146.617 Y115.87 E1.68763
G1 X147.001 Y116.561 E1.72706
G1 X147.313 Y117.286 E1.76644
G1 X147.55 Y118.039 E1.80583
G1 X147.709 Y118.813 E1.84525
G1 X147.79 Y119.598 E1.88462
G1 X147.8 Y120 E1.90468
G1 X147.8 Y140 E2.90249
G1 X147.76 Y140.789 E2.9419
G1 X147.641 Y141.569 E2.98126
G1 X147.443 Y142.334 E3.02069
G1 X147.169 Y143.074 E3.06006
G1 X146.821 Y143.783 E3.09946
G1 X146.403 Y144.454 E3.1389
G1 X145.92 Y145.078 E3.17827
G1 X145.377 Y145.651 E3.21765
G1 X144.778 Y146.166 E3.25706
G1 X144.13 Y146.617 E3.29645
G1 X143.439 Y147.001 E3.33589
G1 X142.714 Y147.313 E3.37527
G1 X141.961 Y147.55 E3.41465
G1 X141.187 Y147.709 E3.45407
G1 X140.402 Y147.79 E3.49345
G1 X140 Y147.8 E3.51351
G1 X120 Y147.8 E4.51131
G1 X119.211 Y147.76 E4.55073
G1 X118.431 Y147.641 E4.59009
G1 X117.666 Y147.443 E4.62951
G1 X116.926 Y147.169 E4.66888
G1 X116.217 Y146.821 E4.70829
G1 X115.546 Y146.403 E4.74773
G1 X114.922 Y145.92 E4.78709
G1 X114.349 Y145.377 E4.82648
G1 X113.834 Y144.778 E4.86589
G1 X113.383 Y144.13 E4.90528
G1 X112.999 Y143.439 E4.94472
G1 X112.687 Y142.714 E4.98409
G1 X112.45 Y141.961 E5.02348
G1 X112.291 Y141.187 E5.0629
G1 X112.21 Y140.402 E5.10227
G1 X112.2 Y140 E5.12233
G1 X112.2 Y120 E6.12014
G1 X112.24 Y119.211 E6.15955
G1 X112.359 Y118.431 E6.19892
G1 X112.557 Y117.666 E6.23834
G1 X112.831 Y116.926 E6.27771
G1 X113.179 Y116.217 E6.31711
G1 X113.597 Y115.546 E6.35655
G1 X114.08 Y114.922 E6.39592
G1 X114.623 Y114.349 E6.4353
G0 F3600 X115.016 Y114.53
G1 F1800 X115.611 Y114.042 E6.4737
G1 X116.253 Y113.619 E6.51205
G1 X116.936 Y113.264 E6.55046
G1 X117.651 Y112.983 E6.58878
G1 X118.393 Y112.777 E6.6272
G1 X119.151 Y112.649 E6.66555
G1 X120 Y112.6 E6.70798
G1 X140 Y112.6 E7.70579
G1 X140.768 Y112.64 E7.74415
G1 X141.528 Y112.759 E7.78253
G1 X142.271 Y112.957 E7.82089
G1 X142.99 Y113.231 E7.85928
G1 X143.676 Y113.578 E7.89764
G1 X144.323 Y113.994 E7.93601
G1 X144.923 Y114.475 E7.97438
G1 X145.47 Y115.016 E8.01276
G1 X145.958 Y115.611 E8.05115
G1 X146.381 Y116.253 E8.08951
G1 X146.736 Y116.936 E8.12791
G1 X147.017 Y117.651 E8.16624
G1 X147.223 Y118.393 E8.20466
G1 X147.351 Y119.151 E8.24301
G1 X147.4 Y120 E8.28544
G1 X147.4 Y140 E9.28324
G1 X147.36 Y140.768 E9.32161
G1 X147.241 Y141.528 E9.35999
G1 X147.043 Y142.271 E9.39835
G1 X146.769 Y142.99 E9.43674
G1 X146.422 Y143.676 E9.47509
G1 X146.006 Y144.323 E9.51347
G1 X145.525 Y144.923 E9.55183
G1 X144.984 Y145.47 E9.59021
G1 X144.389 Y145.958 E9.62861
G1 X143.747 Y146.381 E9.66696
G1 X143.064 Y146.736 E9.70537
G1 X142.349 Y147.017 E9.74369
G1 X141.607 Y147.223 E9.78211
G1 X140.849 Y147.351 E9.82046
G1 X140 Y147.4 E9.86289
G1 X120 Y147.4 E10.86069
G1 X119.232 Y147.36 E10.89906
G1 X118.472 Y147.241 E10.93744
G1 X117.729 Y147.043 E10.9758
G1 X117.01 Y146.769 E11.01419
G1 X116.324 Y146.422 E11.05254
G1 X115.677 Y146.006 E11.09092
G1 X115.077 Y145.525 E11.12929
G1 X114.53 Y144.984 E11.16767
G1 X114.042 Y144.389 E11.20606
G1 X113.619 Y143.747 E11.24442
G1 X113.264 Y143.064 E11.28282
G1 X112.983 Y142.349 E11.32115
G1 X112.777 Y141.607 E11.35957
G1 X112.649 Y140.849 E11.39792
G1 X112.6 Y140 E11.44035
G1 X112.6 Y120 E12.43815
G1 X112.64 Y119.232 E12.47652
G1 X112.759 Y118.472 E12.5149
G1 X112.957 Y117.729 E12.55326
G1 X113.231 Y117.01 E12.59165
G1 X113.578 Y116.324 E12.63
G1 X113.994 Y115.677 E12.66837
G1 X114.475 Y115.077 E12.70674
G1 X115.016 Y114.53 E12.74512
G0 F3600 X115.408 Y114.716
G1 F1800 X115.998 Y114.257 E12.78242
G1 X116.634 Y113.862 E12.81977
G1 X117.308 Y113.538 E12.85708
G1 X118.013 Y113.288 E12.8944
G1 X118.741 Y113.114 E12.93174
G1 X119.483 Y113.019 E12.96906
G1 X120 Y113 E12.99487
G1 X140 Y113 E13.99267
G1 X140.747 Y113.04 E14.03
G1 X141.485 Y113.159 E14.06729
G1 X142.207 Y113.357 E14.10464
G1 X142.903 Y113.63 E14.14194
G1 X143.566 Y113.977 E14.17927
G1 X144.189 Y114.392 E14.21662
G1 X144.763 Y114.871 E14.25392
G1 X145.284 Y115.408 E14.29125
G1 X145.743 Y115.998 E14.32854
G1 X146.138 Y116.634 E14.36589
G1 X146.462 Y117.308 E14.4032
G1 X146.712 Y118.013 E14.44052
G1 X146.886 Y118.741 E14.47786
G1 X146.981 Y119.483 E14.51518
G1 X147 Y120 E14.54099
G1 X147 Y140 E15.5388
G1 X146.96 Y140.747 E15.57612
G1 X146.841 Y141.485 E15.61341
G1 X146.643 Y142.207 E15.65077
G1 X146.37 Y142.903 E15.68806
G1 X146.023 Y143.566 E15.7254
G1 X145.608 Y144.189 E15.76274
G1 X145.129 Y144.763 E15.80004
G1 X144.592 Y145.284 E15.83737
G1 X144.002 Y145.743 E15.87466
G1 X143.366 Y146.138 E15.91202
G1 X142.692 Y146.462 E15.94933
G1 X141.987 Y146.712 E15.98664
G1 X141.259 Y146.886 E16.02399
G1 X140.517 Y146.981 E16.06131
G1 X140 Y147 E16.08712
G1 X120 Y147 E17.08492
G1 X119.253 Y146.96 E17.12224
G1 X118.515 Y146.841 E17.15954
G1 X117.793 Y146.643 E17.19689
G1 X117.097 Y146.37 E17.23419
G1 X116.434 Y146.023 E17.27152
G1 X115.811 Y145.608 E17.30887
G1 X115.237 Y145.129 E17.34617
G1 X114.716 Y144.592 E17.3835
G1 X114.257 Y144.002 E17.42079
G1 X113.862 Y143.366 E17.45814
G1 X113.538 Y142.692 E17.49545
G1 X113.288 Y141.987 E17.53277
G1 X113.114 Y141.259 E17.57011
G1 X113.019 Y140.517 E17.60743
G1 X113 Y140 E17.63324
G1 X113 Y120 E18.63105
G1 X113.04 Y119.253 E18.66837
G1 X113.159 Y118.515 E18.70566
G1 X113.357 Y117.793 E18.74301
G1 X113.63 Y117.097 E18.78031
G1 X113.977 Y116.434 E18.81765
G1 X114.392 Y115.811 E18.85499
G1 X114.871 Y115.237 E18.89229
G1 X115.408 Y114.716 E18.92962
G0 F3600 X115.265 Y115.402
G1 F1800 X115.799 Y114.909 E18.96588
G1 X116.384 Y114.479 E19.0021
G1 X117.013 Y114.115 E19.03836
G1 X117.678 Y113.822 E19.07461
G1 X118.371 Y113.604 E19.11086
G1 X119.083 Y113.464 E19.14706
G1 X120 Y113.4 E19.19292
G1 X140 Y113.4 E20.19072
G1 X140.725 Y113.44 E20.22695
G1 X141.442 Y113.559 E20.26321
G1 X142.141 Y113.757 E20.29945
G1 X142.814 Y114.03 E20.33569
G1 X143.453 Y114.375 E20.37192
G1 X144.05 Y114.789 E20.40816
G1 X144.598 Y115.265 E20.44438
G1 X145.091 Y115.799 E20.48063
G1 X145.521 Y116.384 E20.51686
G1 X145.885 Y117.013 E20.55311
G1 X146.178 Y117.678 E20.58937
G1 X146.396 Y118.371 E20.62561
G1 X146.536 Y119.083 E20.66181
G1 X146.6 Y120 E20.70767
G1 X146.6 Y140 E21.70548
G1 X146.56 Y140.725 E21.7417
G1 X146.441 Y141.442 E21.77796
G1 X146.243 Y142.141 E21.81421
G1 X145.97 Y142.814 E21.85044
G1 X145.625 Y143.453 E21.88667
G1 X145.211 Y144.05 E21.92292
G1 X144.735 Y144.598 E21.95913
G1 X144.201 Y145.091 E21.99539
G1 X143.616 Y145.521 E22.03161
G1 X142.987 Y145.885 E22.06787
G1 X142.322 Y146.178 E22.10412
G1 X141.629 Y146.396 E22.14037
G1 X140.917 Y146.536 E22.17657
G1 X140 Y146.6 E22.22243
G1 X120 Y146.6 E23.22024
G1 X119.275 Y146.56 E23.25646
G1 X118.558 Y146.441 E23.29272
G1 X117.859 Y146.243 E23.32897
G1 X117.186 Y145.97 E23.3652
G1 X116.547 Y145.625 E23.40143
G1 X115.95 Y145.211 E23.43767
G1 X115.402 Y144.735 E23.47389
G1 X114.909 Y144.201 E23.51015
G1 X114.479 Y143.616 E23.54637
G1 X114.115 Y142.987 E23.58263
G1 X113.822 Y142.322 E23.61888
G1 X113.604 Y141.629 E23.65512
G1 X113.464 Y140.917 E23.69133
G1 X113.4 Y140 E23.73719
G1 X113.4 Y120 E24.73499
G1 X113.44 Y119.275 E24.77122
G1 X113.559 Y118.558 E24.80748
G1 X113.757 Y117.859 E24.84372
G1 X114.03 Y117.186 E24.87996
G1 X114.375 Y116.547 E24.91619
G1 X114.789 Y115.95 E24.95243
G1 X115.265 Y115.402 E24.98864
G0 F3600 X115.659 Y115.573
G1 F1800 X116.189 Y115.109 E25.02379
G1 X116.768 Y114.709 E25.0589
G1 X117.389 Y114.377 E25.09403
G1 X118.043 Y114.117 E25.12914
G1 X118.723 Y113.933 E25.16429
G1 X119.419 Y113.827 E25.19941
G1 X120 Y113.8 E25.22843
G1 X140 Y113.8 E26.22623
G1 X140.703 Y113.84 E26.26136
G1 X141.397 Y113.959 E26.29649
G1 X142.072 Y114.157 E26.33159
G1 X142.721 Y114.429 E26.36669
G1 X143.335 Y114.774 E26.40183
G1 X143.906 Y115.185 E26.43693
G1 X144.427 Y115.659 E26.47207
G1 X144.891 Y116.189 E26.50721
G1 X145.291 Y116.768 E26.54232
G1 X145.623 Y117.389 E26.57745
G1 X145.883 Y118.043 E26.61257
G1 X146.067 Y118.723 E26.64771
G1 X146.173 Y119.419 E26.68284
G1 X146.2 Y120 E26.71185
G1 X146.2 Y140 E27.70966
G1 X146.16 Y140.703 E27.74479
G1 X146.041 Y141.397 E27.77992
G1 X145.843 Y142.072 E27.81501
G1 X145.571 Y142.721 E27.85012
G1 X145.226 Y143.335 E27.88525
G1 X144.815 Y143.906 E27.92035
G1 X144.341 Y144.427 E27.95549
G1 X143.811 Y144.891 E27.99064
G1 X143.232 Y145.291 E28.02575
G1 X142.611 Y145.623 E28.06088
G1 X141.957 Y145.883 E28.09599
G1 X141.277 Y146.067 E28.13114
G1 X140.581 Y146.173 E28.16626
G1 X140 Y146.2 E28.19528
G1 X120 Y146.2 E29.19308
G1 X119.297 Y146.16 E29.22821
G1 X118.603 Y146.041 E29.26334
G1 X117.928 Y145.843 E29.29844
G1 X117.279 Y145.571 E29.33354
G1 X116.665 Y145.226 E29.36868
G1 X116.094 Y144.815 E29.40378
G1 X115.573 Y144.341 E29.43892
G1 X115.109 Y143.811 E29.47406
G1 X114.709 Y143.232 E29.50917
G1 X114.377 Y142.611 E29.5443
G1 X114.117 Y141.957 E29.57942
G1 X113.933 Y141.277 E29.61456
G1 X113.827 Y140.581 E29.64969
G1 X113.8 Y140 E29.6787
G1 X113.8 Y120 E30.67651
G1 X113.84 Y119.297 E30.71164
G1 X113.959 Y118.603 E30.74677
G1 X114.157 Y117.928 E30.78186
G1 X114.429 Y117.279 E30.81697
G1 X114.774 Y116.665 E30.85211
G1 X115.185 Y116.094 E30.8872
G1 X115.659 Y115.573 E30.92235
G0 F3600 X116.053 Y115.751
G1 F1800 X116.578 Y115.317 E30.95633
G1 X117.15 Y114.948 E30.99029
G1 X117.762 Y114.649 E31.02427
G1 X118.404 Y114.424 E31.05821
G1 X119.069 Y114.275 E31.09221
G1 X120 Y114.2 E31.13881
G1 X140 Y114.2 E32.13661
G1 X140.68 Y114.24 E32.1706
G1 X141.35 Y114.359 E32.20455
G1 X142.002 Y114.556 E32.23853
G1 X142.626 Y114.828 E32.27249
G1 X143.214 Y115.172 E32.30647
G1 X143.758 Y115.582 E32.34046
G1 X144.249 Y116.053 E32.3744
G1 X144.683 Y116.578 E32.40839
G1 X145.052 Y117.15 E32.44235
G1 X145.351 Y117.762 E32.47633
G1 X145.576 Y118.404 E32.51027
G1 X145.725 Y119.069 E32.54427
G1 X145.8 Y120 E32.59087
G1 X145.8 Y140 E33.58867
G1 X145.76 Y140.68 E33.62265
G1 X145.641 Y141.35 E33.6566
G1 X145.444 Y142.002 E33.69058
G1 X145.172 Y142.626 E33.72454
G1 X144.828 Y143.214 E33.75853
G1 X144.418 Y143.758 E33.79252
G1 X143.947 Y144.249 E33.82646
G1 X143.422 Y144.683 E33.86044
G1 X142.85 Y145.052 E33.8944
G1 X142.238 Y145.351 E33.92839
G1 X141.596 Y145.576 E33.96233
G1 X140.931 Y145.725 E33.99633
G1 X140 Y145.8 E34.04292
G1 X120 Y145.8 E35.04073
G1 X119.32 Y145.76 E35.07471
G1 X118.65 Y145.641 E35.10866
G1 X117.998 Y145.444 E35.14264
G1 X117.374 Y145.172 E35.1766
G1 X116.786 Y144.828 E35.21059
G1 X116.242 Y144.418 E35.24458
G1 X115.751 Y143.947 E35.27852
G1 X115.317 Y143.422 E35.3125
G1 X114.948 Y142.85 E35.34646
G1 X114.649 Y142.238 E35.38045
G1 X114.424 Y141.596 E35.41438
G1 X114.275 Y140.931 E35.44838
G1 X114.2 Y140 E35.49498
G1 X114.2 Y120 E36.49279
G1 X114.24 Y119.32 E36.52677
G1 X114.359 Y118.65 E36.56072
G1 X114.556 Y117.998 E36.5947
G1 X114.828 Y117.374 E36.62866
G1 X115.172 Y116.786 E36.66265
G1 X115.582 Y116.242 E36.69663
G1 X116.053 Y115.751 E36.73058
G0 F3600 X116.445 Y115.935
G1 F1800 X116.965 Y115.534 E36.76334
G1 X117.529 Y115.198 E36.79609
G1 X118.131 Y114.934 E36.82889
G1 X118.76 Y114.744 E36.86167
G1 X119.407 Y114.633 E36.89442
G1 X120 Y114.6 E36.92405
G1 X140 Y114.6 E37.92185
G1 X140.656 Y114.64 E37.95464
G1 X141.302 Y114.759 E37.98741
G1 X141.929 Y114.956 E38.0202
G1 X142.527 Y115.228 E38.05298
G1 X143.088 Y115.57 E38.08576
G1 X143.603 Y115.978 E38.11854
G1 X144.065 Y116.445 E38.15131
G1 X144.466 Y116.965 E38.18407
G1 X144.802 Y117.529 E38.21682
G1 X145.066 Y118.131 E38.24962
G1 X145.256 Y118.76 E38.2824
G1 X145.367 Y119.407 E38.31515
G1 X145.4 Y120 E38.34478
G1 X145.4 Y140 E39.34259
G1 X145.36 Y140.656 E39.37537
G1 X145.241 Y141.302 E39.40815
G1 X145.044 Y141.929 E39.44093
G1 X144.772 Y142.527 E39.47371
G1 X144.43 Y143.088 E39.50649
G1 X144.022 Y143.603 E39.53927
G1 X143.555 Y144.065 E39.57204
G1 X143.035 Y144.466 E39.6048
G1 X142.471 Y144.802 E39.63756
G1 X141.869 Y145.066 E39.67035
G1 X141.24 Y145.256 E39.70313
G1 X140.593 Y145.367 E39.73588
G1 X140 Y145.4 E39.76551
G1 X120 Y145.4 E40.76332
G1 X119.344 Y145.36 E40.79611
G1 X118.698 Y145.241 E40.82888
G1 X118.071 Y145.044 E40.86167
G1 X117.473 Y144.772 E40.89444
G1 X116.912 Y144.43 E40.92722
G1 X116.397 Y144.022 E40.96
G1 X115.935 Y143.555 E40.99277
G1 X115.534 Y143.035 E41.02553
G1 X115.198 Y142.471 E41.05829
G1 X114.934 Y141.869 E41.09108
G1 X114.744 Y141.24 E41.12386
G1 X114.633 Y140.593 E41.15661
G1 X114.6 Y140 E41.18625
G1 X114.6 Y120 E42.18405
G1 X114.64 Y119.344 E42.21684
G1 X114.759 Y118.698 E42.24961
G1 X114.956 Y118.071 E42.2824
G1 X115.228 Y117.473 E42.31517
G1 X115.57 Y116.912 E42.34795
G1 X115.978 Y116.397 E42.38073
G1 X116.445 Y115.935 E42.41351
G0 F3600 X116.373 Y116.559
G1 F1800 X116.836 Y116.129 E42.44503
G1 X117.35 Y115.76 E42.4766
G1 X117.906 Y115.46 E42.50812
G1 X118.495 Y115.232 E42.53963
G1 X119.109 Y115.08 E42.57118
G1 X120 Y115 E42.61582
G1 X140 Y115 E43.61362
G1 X140.631 Y115.04 E43.64516
G1 X141.252 Y115.159 E43.67671
G1 X141.852 Y115.356 E43.70822
G1 X142.424 Y115.627 E43.73979
G1 X142.956 Y115.967 E43.77129
G1 X143.441 Y116.373 E43.80285
G1 X143.871 Y116.836 E43.83437
G1 X144.24 Y117.35 E43.86594
G1 X144.54 Y117.906 E43.89746
G1 X144.768 Y118.495 E43.92897
G1 X144.92 Y119.109 E43.96053
G1 X145 Y120 E44.00516
G1 X145 Y140 E45.00296
G1 X144.96 Y140.631 E45.03451
G1 X144.841 Y141.252 E45.06605
G1 X144.644 Y141.852 E45.09756
G1 X144.373 Y142.424 E45.12914
G1 X144.033 Y142.956 E45.16063
G1 X143.627 Y143.441 E45.19219
G1 X143.164 Y143.871 E45.22371
G1 X142.65 Y144.24 E45.25528
G1 X142.094 Y144.54 E45.2868
G1 X141.505 Y144.768 E45.31831
G1 X140.891 Y144.92 E45.34987
G1 X140 Y145 E45.3945
G1 X120 Y145 E46.3923
G1 X119.369 Y144.96 E46.42385
G1 X118.748 Y144.841 E46.45539
G1 X118.148 Y144.644 E46.4869
G1 X117.576 Y144.373 E46.51848
G1 X117.044 Y144.033 E46.54998
G1 X116.559 Y143.627 E46.58153
G1 X116.129 Y143.164 E46.61306
G1 X115.76 Y142.65 E46.64462
G1 X115.46 Y142.094 E46.67614
G1 X115.232 Y141.505 E46.70765
G1 X115.08 Y140.891 E46.73921
G1 X115 Y140 E46.78384
G1 X115 Y120 E47.78165
G1 X115.04 Y119.369 E47.81319
G1 X115.159 Y118.748 E47.84474
G1 X115.356 Y118.148 E47.87624
G1 X115.627 Y117.576 E47.90782
G1 X115.967 Y117.044 E47.93932
G1 X116.373 Y116.559 E47.97087
G0 F3600 X116.767 Y116.728
G1 F1800 X117.225 Y116.331 E48.00111
G1 X117.732 Y115.998 E48.03138
G1 X118.278 Y115.734 E48.06163
G1 X118.854 Y115.545 E48.09188
G1 X119.45 Y115.433 E48.12213
G1 X120 Y115.4 E48.14962
G1 X140 Y115.4 E49.14742
G1 X140.605 Y115.44 E49.17767
G1 X141.199 Y115.559 E49.2079
G1 X141.773 Y115.755 E49.23816
G1 X142.316 Y116.026 E49.26844
G1 X142.819 Y116.365 E49.2987
G1 X143.272 Y116.767 E49.32891
G1 X143.669 Y117.225 E49.35915
G1 X144.002 Y117.732 E49.38941
G1 X144.266 Y118.278 E49.41967
G1 X144.455 Y118.854 E49.44992
G1 X144.567 Y119.45 E49.48017
